src/images/icons/facebook.svg

<svg viewBox="0 0 512 512" xmlns="http://www.w3.org/2000/svg">
<path fill-rule="evenodd" clip-rule="evenodd" d="M448 256.002C448.031 153.842 368.063 69.5471 266.048 64.2044C164.032 58.8616 75.6975 134.342 65.0576 235.946C54.4177 337.551 125.199 429.695 226.108 445.604V311.402H177.109V256.002H226.108V213.701C226.108 165.701 254.607 138.9 298.505 138.9C319.504 138.9 341.204 142.9 341.204 142.9V189.801H317.105C293.105 189.801 285.706 204.801 285.706 219.801V255.802H339.004L330.504 311.202H285.706V445.404C379.159 431.028 448.111 350.559 448 256.002Z" fill="black"/>
</svg>

<svg viewBox="0 0 512 512" xmlns="http://www.w3.org/2000/svg">
  <title>
    facebook
  </title>
  <path d="M448 256a192 192 0 1 0-221.9 189.6V311.4h-49V256h49v-42.3c0-48 28.5-74.8 72.4-74.8 21 0 42.7 4 42.7 4v46.9h-24.1c-24 0-31.4 15-31.4 30v36H339l-8.5 55.4h-44.8v134.2A191.4 191.4 0 0 0 448 256z" fill-rule="evenodd"/>
</svg>
